X: 36
T:Gladstone
C:J Scott Skinner
A:scottish
D:Altan
M:C
L:1/8
K:A
cAdB efga| (3AAA cA BGEd| cAdB efga| ecdB A2 ed|
cAdB efga| (3AAA cA BGEd| cAdB efga| ecdB Aefg ||
| afba geag| fdgf eAce| dcBd cBAc| ~B2 Bc defg|
aA (3AAA eAce| aAgA fece| defd ceaf| ecdB A2 ed ||
